X: 20212
T: NAHANT MARCH
C:
%R: march
B: Elias Howe "The Musician's Companion" 1843 p.21 #2
S: http://imslp.org/wiki/The_Musician's_Companion_(Howe,_Elias)
Z: 2015 John Chambers <jc:trillian.mit.edu>
M: C
L: 1/16
K: G
% - - - - - - - - - - - - - - - - - - - - - - - - -
|:\
g4 f3e d3d e3e | d2d2 ^c2c2 d4 z4 |\
D4 GFGA B4 B4 | BABc BAGF G3G B3d |\
g8 g3B d3g | b8 b3b a3g |\
f2g2a2g2 f4 e4 | d4 d3d d4 "^Fine"z4 :|
|:\
d4 d4 d3d d4 | =f8 A3AA3A |\
B4 B3A G3BA3G | F4 D3D D4 d3c |\
B3AG3A A3GF3A | G3FG3A B3cd3c |\
B2gf edcB A2fe dcBA | G4 G3G G4 z4 :|
|:\
c3Bc3d e8 | e3Bc3e g8 |\
(3(f2e2d2) (3(d2^c2d2) (3(B2A2B2) (3(G2A2B2) | (3(c2e2d2) (3(c2g2e2) d4 z4 |\
c3Bc3d e8 | f3ef3g a8 |\
(3(g2f2e2) (3(d2c2B2) (3(A2G2F2) (3(G2A2B2) | (3(c2G2e2) (3(c2g2e2) c4 "^D.C."z4 :|
% - - - - - - - - - - - - - - - - - - - - - - - - -
